public/shapes/octagon.svg

<!-- Generated by IcoMoon.io -->
<svg version="1.1" xmlns="http://www.w3.org/2000/svg" width="24" height="24" viewBox="0 0 24 24">
<title>octagon</title>
<path d="M7.86 1c-0.256 0-0.512 0.098-0.707 0.293l-5.86 5.86c-0.181 0.181-0.293 0.431-0.293 0.707v8.28c0 0.256 0.098 0.512 0.293 0.707l5.86 5.86c0.181 0.181 0.431 0.293 0.707 0.293h8.28c0.256 0 0.512-0.098 0.707-0.293l5.86-5.86c0.181-0.181 0.293-0.431 0.293-0.707v-8.28c0-0.256-0.098-0.512-0.293-0.707l-5.86-5.86c-0.181-0.181-0.431-0.293-0.707-0.293zM8.274 3h7.452l5.274 5.274v7.452l-5.274 5.274h-7.452l-5.274-5.274v-7.452z"></path>
</svg>

<svg xmlns="http://www.w3.org/2000/svg" width="24" height="24">
  <path d="M7.86 1c-.256 0-.512.098-.707.293l-5.86 5.86A.9969.9969 0 001 7.86v8.28c0 .256.098.512.293.707l5.86 5.86c.181.181.431.293.707.293h8.28c.256 0 .512-.098.707-.293l5.86-5.86A.9969.9969 0 0023 16.14V7.86c0-.256-.098-.512-.293-.707l-5.86-5.86A.9969.9969 0 0016.14 1zm.414 2h7.452L21 8.274v7.452L15.726 21H8.274L3 15.726V8.274z"/>
</svg>
